icons/atom-logo.svg

<?xml version="1.0" encoding="UTF-8"?>
<svg width="512px" height="106px" viewBox="0 0 512 106" version="1.1" xmlns="http://www.w3.org/2000/svg" xmlns:xlink="http://www.w3.org/1999/xlink" preserveAspectRatio="xMidYMid">=
    <g>
        <path d="M51.8091626,6.71158507 C52.8402889,7.53988255 53.0047142,9.04724336 52.1764167,10.0783697 C51.3481192,11.109496 49.8407584,11.2739213 48.8096321,10.4456238 C42.5668039,5.43079794 37.3667474,3.77510327 34.1594974,5.41233866 C30.4269508,7.31585085 28.9794514,13.4401259 29.7327861,21.9862906 L29.8462653,23.1399732 C29.9095185,23.7238326 29.9825366,24.3181006 30.0652945,24.9222442 L30.2437896,26.143541 C30.465361,27.5717365 30.7390174,29.0509298 31.0644495,30.5745126 C35.5599936,29.8779693 40.3986961,29.4225474 45.4801907,29.2327082 C47.6841703,26.4008651 49.9252464,23.7427569 52.1761609,21.2815022 L53.3041441,20.0654405 C56.1255242,17.0669762 58.9551926,14.3832323 61.7396429,12.0602246 L62.8508846,11.1503699 C73.0128348,2.9883945 82.4709386,-0.241194255 88.587534,3.7300207 C93.9157135,7.1867478 95.3437987,15.0172613 93.3649506,25.5107302 C93.1198541,26.8104324 91.8675472,27.6653592 90.567845,27.4202626 C89.2681428,27.1751661 88.413216,25.9228592 88.6583125,24.623157 C90.3155511,15.8351244 89.2244739,9.85250198 85.9800629,7.74764713 C81.7634008,5.00996874 73.9276374,8.16163955 65.092396,15.5219176 L64.1067225,16.3569602 C63.6119623,16.7830558 63.1144168,17.2219489 62.614535,17.6733511 L61.6117898,18.5927491 C60.6061958,19.5286553 59.592455,20.5138297 58.5741607,21.545967 L57.5544818,22.5936731 C57.3843267,22.7708714 57.2140783,22.9493528 57.0437535,23.1291067 L56.0210183,24.222815 L54.9972439,25.3465509 L53.9732288,26.4998021 C53.631939,26.8890814 53.2907422,27.2831946 52.9497715,27.6820562 L51.9276706,28.892801 L51.7283005,29.1341134 C54.1109273,29.1467232 56.5350648,29.2157792 58.9913828,29.3434952 L59.9448979,29.3959902 L61.8399272,29.5174613 C63.4122538,29.6277743 64.9670904,29.7606897 66.5019708,29.9153436 L68.3340905,30.1113076 C68.6377947,30.1456889 68.9406612,30.1809259 69.2426702,30.2170118 L71.0442774,30.4436572 C72.5367794,30.6409244 74.006859,30.8590661 75.4520502,31.0972186 L77.1741754,31.3925515 L78.8714607,31.706763 L80.5429591,32.0395213 C86.0705901,33.1792585 91.1526563,34.6225808 95.631325,36.3141986 L96.9566659,36.8290776 C108.718975,41.5290326 115.967457,47.9987565 115.595491,55.1499866 C115.28713,61.0618196 109.988073,65.9418724 101.10583,69.4390254 C99.8751722,69.9235652 98.4847296,69.3187167 98.0001898,68.0880586 C97.51565,66.8574005 98.1204985,65.4669579 99.3511566,64.9824181 C106.6756,62.0986082 110.626739,58.4598911 110.812379,54.9008478 C111.049386,50.3442854 105.597716,45.6319539 96.5230463,41.8308591 L95.3938953,41.3700458 C94.6292436,41.0659698 93.8410105,40.7682565 93.0303197,40.4774861 L91.7975806,40.0466105 C91.3811468,39.9047694 90.959239,39.7647367 90.5319978,39.6265848 L89.234414,39.2178443 L87.9056719,38.8208243 C87.6816652,38.7556552 87.4563954,38.6909926 87.2298799,38.6268456 L85.8559808,38.2482227 C85.6245533,38.1861742 85.3919152,38.1246594 85.1580843,38.0636874 L83.7409243,37.7044411 C82.3097303,37.3518532 80.8368557,37.0194581 79.326093,36.7092148 L77.8028413,36.406428 C77.546908,36.3572184 77.2899573,36.3086423 77.0320068,36.2607086 L75.4724473,35.9808899 L73.889736,35.7169274 C73.6240683,35.6742792 73.357471,35.6323098 73.0899618,35.5910283 L71.474103,35.3516663 C70.9319291,35.2746789 70.3862478,35.2005156 69.8371994,35.1292489 L68.1800937,34.9242113 L66.5036288,34.7369889 C65.660697,34.6479041 64.8108215,34.5656632 63.9544764,34.4905111 L62.2333005,34.3497313 C61.6567935,34.3060037 61.0775515,34.2654992 60.4957151,34.2282904 L58.7425629,34.1266236 L56.9882839,34.045832 L55.2474364,33.9863218 C53.2246262,33.9291731 51.2310422,33.9147685 49.2729971,33.9406394 L47.904,33.966 L47.3664125,34.6799868 C47.0319544,35.1284982 46.6984544,35.5812883 46.3660456,36.0382719 L45.3722256,37.4217174 C44.2168985,39.0502148 43.0765683,40.7290352 41.9569414,42.4545177 C41.6370604,42.9474936 41.3213468,43.4404613 41.0098243,43.9332644 L40.0878542,45.4110238 C39.1057572,47.0061333 38.1679065,48.5978744 37.2751096,50.180931 C37.3583734,50.3802779 37.4414463,50.5811284 37.525168,50.7822061 L38.1761634,52.3197851 C38.2867562,52.5767293 38.3983952,52.834001 38.5110794,53.0915804 L39.1997202,54.6405905 L39.9134026,56.196037 L40.6520821,57.7569722 L41.4157144,59.3224487 L42.2042552,60.8915189 L43.0113708,62.4512804 L43.830199,63.9887626 L44.6599992,65.5033733 C44.7991724,65.7538696 44.9387719,66.0033882 45.0787822,66.2519168 L45.9236513,67.73111 C46.2068355,68.2201487 46.4915397,68.7051287 46.7776405,69.1859513 L47.6400089,70.6158485 C47.9287793,71.0882578 48.2188228,71.556411 48.510016,72.0202094 L49.3869209,73.3984419 L50.2699828,74.7499536 C51.0082275,75.8649153 51.7521142,76.9514261 52.4997139,78.0079439 L53.3984924,79.2612699 C53.9987016,80.0870912 54.6007933,80.8933222 55.2037798,81.6791733 L56.1088073,82.8425662 L57.0144364,83.9747971 C57.1653836,84.1608726 57.3163249,84.3456249 57.467245,84.5290418 L58.3723875,85.6134193 L59.2762797,86.6651542 C60.1792999,87.7003706 61.0793334,88.6857349 61.9730471,89.6185823 L62.8645306,90.5338254 L63.7510602,91.413465 C64.192963,91.8442853 64.6327303,92.2615322 65.0699454,92.6648726 L65.9408492,93.4529129 C66.3744762,93.8375634 66.8052732,94.2080853 67.2328235,94.5641456 L68.083472,95.2568852 C73.8649684,99.857496 78.9881821,101.715517 82.3895184,99.9806566 C85.583667,98.3519974 87.1078218,93.5972525 86.9953999,86.8540906 L86.9662665,85.8278454 C86.9524667,85.4808874 86.9345796,85.1291006 86.9126095,84.7726271 L86.834454,83.6892892 C86.8043218,83.3235847 86.7701108,82.9533358 86.731825,82.5786847 L86.6047476,81.441667 C86.581532,81.2500103 86.5572989,81.0572887 86.5320486,80.8635198 L86.3683456,79.688482 L86.1802568,78.4891641 L85.9678074,77.2664194 C85.7806229,76.2379413 85.5680888,75.185949 85.3302704,74.1126645 L85.032756,72.814645 L84.7109937,71.4970384 C84.6553474,71.2758524 84.5986918,71.0538858 84.5410274,70.8311564 L84.1829403,69.4857688 L83.8006679,68.122927 C83.7349418,67.8943796 83.668209,67.6651405 83.6004701,67.4352274 L83.1819668,66.0478043 L82.739341,64.6450602 C82.5120016,63.9400002 82.2756257,63.2295147 82.0302273,62.5140838 L81.5274046,61.0767702 L81.0005471,59.627122 C80.6413028,58.656768 80.2660519,57.6787597 79.8748279,56.6942349 L79.2760162,55.2127025 L78.6532699,53.7222484 C78.5474857,53.4731433 78.4407052,53.2237021 78.3329291,52.9739424 L77.6743279,51.4717058 L76.9918547,49.9626808 C76.8761213,49.7106583 76.7593942,49.4583885 76.641674,49.2058892 L75.9234399,47.6882813 C75.8017494,47.434935 75.6790669,47.1813947 75.5553928,46.9276783 C74.9758701,45.7387916 75.4698572,44.3052125 76.6587439,43.7256897 C77.8476306,43.146167 79.2812097,43.6401541 79.8607324,44.8290408 L80.6549988,46.4829156 C80.9154343,47.0334615 81.1715407,47.5832123 81.4232909,48.1320198 L82.1654458,49.7754643 C82.894478,51.4157824 83.5840605,53.0462768 84.2334608,54.6629452 L84.8694399,56.2748568 C84.973195,56.5426912 85.0758272,56.8101045 85.177333,57.0770782 L85.7728248,58.6734963 C85.8698117,58.9386373 85.9656655,59.2033016 86.0603828,59.4674707 L86.615021,61.0463943 C86.9756515,62.0948506 87.3179893,63.1347904 87.6418173,64.1650279 L88.1136499,65.7029593 C93.7610336,84.5773765 93.0363128,99.9282585 84.5654567,104.247449 C77.7134902,107.742313 67.9984111,102.88812 58.2193635,92.6505114 L57.2076245,91.5723664 C56.5331327,90.8409628 55.8587958,90.0844408 55.1855318,89.3037731 L54.1765554,88.1147839 C51.4887098,84.8965033 48.8253775,81.2996743 46.2453212,77.3865548 L45.2818184,75.9044305 C42.8833941,72.1626625 40.5646175,68.1497447 38.3739074,63.916976 L37.9374873,63.0675061 C37.6477087,62.4993121 37.3624147,61.9314868 37.0816362,61.3641944 L36.2528785,59.6640806 C35.6004666,58.3049219 34.9742666,56.9497832 34.3747079,55.6009396 L33.9890168,56.3680853 C33.8697382,56.6074416 33.7515577,56.8464245 33.6344785,57.0850147 L32.9452415,58.5116852 L32.282576,59.92799 L31.6466244,61.3329911 C31.5428665,61.5661639 31.4402277,61.7988266 31.3387108,62.0309597 L30.7430972,63.4172469 C30.6460802,63.6471835 30.5501911,63.8765513 30.4554328,64.105331 L29.9004778,65.4707941 C29.810255,65.6971428 29.721169,65.9228641 29.6332228,66.1479387 L29.1192468,67.4904675 C29.0358716,67.7128766 28.9536422,67.9345997 28.8725614,68.1556174 L28.399885,69.4731019 L27.9549196,70.7727177 C27.7393885,71.4179022 27.5343025,72.0560343 27.3397416,72.6865864 L26.9646773,73.9374278 L26.6178227,75.167118 C26.5623723,75.3702517 26.5081032,75.5724651 26.4550185,75.7737385 L26.1507455,76.9699437 C25.9090673,77.9571218 25.6971452,78.9198252 25.5153501,79.8556117 L25.3116807,80.9654789 C23.9560274,88.824693 24.8395444,94.6208738 28.1981886,96.8005722 C31.5810427,98.995229 37.8536964,97.3256527 45.5937876,91.7377845 C46.6661449,90.9636087 48.1630557,91.2053326 48.9372314,92.2776898 C49.7114072,93.3500471 49.4696833,94.8469578 48.3973261,95.6211336 C39.2238919,102.243787 31.1149823,104.402115 25.5911065,100.818451 C18.9170839,96.4871332 18.447955,85.0346115 22.890017,70.7871323 L23.3505459,69.3532281 C23.6684151,68.3912946 24.0079201,67.41758 24.3686776,66.4333661 L24.9257054,64.9493311 C25.6895339,62.9605457 26.5376059,60.932327 27.4668548,58.8749298 L28.1789643,57.3265712 L28.9212276,55.768232 C29.8668475,53.8164022 30.8823283,51.8434754 31.9651508,49.8578765 C31.8219762,49.490807 31.679546,49.1247079 31.5392103,48.7593877 L30.9195863,47.1146882 C30.1124967,44.9292559 29.3818753,42.7747019 28.7297076,40.661544 L28.255323,39.0846016 C27.9624289,38.0848304 27.6875697,37.0951161 27.4309622,36.116607 L26.5533271,36.2981926 L25.2509668,36.5846171 L23.9801481,36.8852407 C23.7710225,36.9365087 23.563248,36.988354 23.3568429,37.0407692 L22.134993,37.3620437 L20.9468932,37.6966535 C20.5565831,37.8103743 20.1720453,37.9262601 19.793427,38.0442532 L18.6754778,38.4044974 C18.3088458,38.5266478 17.9482805,38.650848 17.5939291,38.7770404 L16.5496642,39.1615369 C9.37236463,41.8940435 5.0003593,45.479736 4.79721049,49.3853659 C4.61154775,52.9448511 8.16380317,56.974373 15.1504424,60.6021066 C16.3242501,61.211593 16.7817229,62.6572385 16.1722365,63.8310462 C15.5627501,65.0048539 14.1171046,65.4623267 12.9432969,64.8528403 C4.47032895,60.4533472 -0.294289321,55.0485745 0.0140987403,49.1362271 C0.442811972,40.8940163 10.8469133,34.6027933 26.3221696,31.4261779 C23.1900357,16.4605545 24.7841194,4.81709316 31.9826867,1.14599099 C37.3034298,-1.57013966 44.2547186,0.64314626 51.8091626,6.71158507 Z M365.86601,15.2840386 C389.019352,15.2840386 404.201437,33.7426433 404.201437,54.6022662 L404.201437,54.8230853 C404.201437,75.6842632 388.800088,94.3605769 365.646746,94.3605769 C342.491849,94.3605769 327.308208,75.9035272 327.308208,55.0407942 L327.308208,54.8230853 C327.308208,33.9619073 342.709558,15.2840386 365.86601,15.2840386 Z M443.297291,16.2668388 C444.499355,16.2668388 445.374856,16.9230756 446.136837,17.9074309 L475.956736,61.8130961 L505.776636,17.9074309 C506.429762,16.9230756 507.414117,16.2668388 508.613072,16.2668388 L509.160454,16.2668388 C510.687526,16.2668388 512,17.5793124 512,19.1063849 L512,90.64553 C512,92.1757126 510.687526,93.4881862 509.160454,93.4881862 C507.630271,93.4881862 506.320908,92.1757126 506.320908,90.64553 L506.320908,26.6437781 L478.250455,67.4937434 C477.594218,68.4780986 476.829127,68.9135164 475.847882,68.9135164 C474.863527,68.9135164 474.098435,68.4780986 473.445309,67.4937434 L445.374856,26.6437781 L445.374856,90.7574946 C445.374856,92.284567 444.172792,93.4881862 442.644164,93.4881862 C441.113982,93.4881862 439.913473,92.2861221 439.913473,90.7574946 L439.913473,19.1063849 C439.913473,17.5793124 441.222836,16.2668388 442.753019,16.2668388 L443.297291,16.2668388 Z M300.881458,16.5934021 C302.299676,16.5934021 303.503295,17.7939112 303.503295,19.2152393 C303.503295,20.6365675 302.301231,21.8370765 300.881458,21.8370765 L276.414087,21.8370765 L276.414087,90.6486401 C276.414087,92.1757126 275.104724,93.4881862 273.574541,93.4881862 C272.047469,93.4881862 270.734995,92.1757126 270.734995,90.6486401 L270.734995,21.8370765 L246.267625,21.8370765 C244.849407,21.8370765 243.647343,20.6381225 243.647343,19.2152393 C243.647343,17.7954663 244.847852,16.5934021 246.267625,16.5934021 L300.881458,16.5934021 Z M188.604312,15.8298659 C190.569912,15.8298659 191.663122,16.9230756 192.425103,18.5636677 L224.974139,89.1184575 C225.302257,89.7746944 225.411112,90.3205217 225.411112,90.8679041 C225.411112,92.2861221 224.210603,93.4881862 222.678865,93.4881862 C221.369502,93.4881862 220.386701,92.505386 219.840874,91.3033219 L210.885263,71.642653 L165.774423,71.642653 L156.817257,91.4137314 C156.27143,92.7230949 155.399039,93.4881862 154.086566,93.4881862 C152.666793,93.4881862 151.464728,92.3965316 151.464728,91.0840579 C151.466283,90.647085 151.576693,89.9924033 151.904811,89.3377215 L184.561147,18.5636677 C185.326238,16.9230756 186.417893,15.8298659 188.385048,15.8298659 L188.604312,15.8298659 Z M365.646746,20.4173035 C346.749613,20.4173035 333.206564,35.7082437 333.206564,54.6022662 L333.206564,54.8230853 C333.206564,73.7186629 346.968877,89.227312 365.86601,89.227312 C384.760032,89.227312 398.303081,73.9363718 398.303081,55.0407942 L398.303081,54.8230853 C398.303081,35.9275077 384.540768,20.4173035 365.646746,20.4173035 Z M188.383493,22.2756045 L168.176997,66.5093881 L208.481135,66.5093881 L188.383493,22.2756045 Z M64.9332153,51.2588795 C65.7278528,54.9366049 63.3905922,58.5599031 59.7128668,59.3560956 C56.0351415,60.1507331 52.4118433,57.8134725 51.6156508,54.1357472 C50.8225683,50.4580218 53.1582738,46.8347236 56.8359992,46.0385311 C60.5137246,45.2438936 64.1370227,47.5811542 64.9332153,51.2588795 Z M41.7479804,34.2454455 L41.6453217,34.2530736 C41.204357,34.2837601 40.7658842,34.3165432 40.3299883,34.3513895 L38.7720435,34.4856921 L37.2372477,34.6374758 C36.9834266,34.6642106 36.7306068,34.6916594 36.4788068,34.7198151 L34.9803911,34.8971727 C34.7327437,34.9281267 34.486153,34.959773 34.2406371,34.9921046 L32.7805892,35.1942588 L32.201,35.282 L32.4059162,36.0470509 C32.7264866,37.211971 33.0737195,38.3959337 33.4474994,39.5964712 L33.9087704,41.0449143 L34.148949,41.7748067 L34.6483645,43.2453409 C34.7859804,43.6423701 34.9263449,44.0408662 35.069454,44.4407465 C35.8273964,43.1791973 36.6119147,41.914563 37.421689,40.6500348 L37.939076,39.8474148 C39.1858713,37.9259502 40.4574638,36.0569435 41.7479804,34.2454455 Z" fill="#000000"></path>
    </g>
</svg>

<svg xmlns="http://www.w3.org/2000/svg" viewBox="0 0 512 105.373">
  =
  <path d="M51.81 6.712a2.395 2.395 0 0 1-3 3.734c-6.243-5.015-11.443-6.67-14.65-5.034-3.733 1.904-5.18 8.028-4.427 16.574l.113 1.154c.064.584.137 1.178.22 1.782l.178 1.222c.221 1.428.495 2.907.82 4.43 4.496-.696 9.335-1.151 14.416-1.341a131.17 131.17 0 0 1 6.696-7.951l1.128-1.217c2.822-2.998 5.651-5.682 8.436-8.005l1.11-.91C73.014 2.988 82.47-.24 88.589 3.73c5.328 3.457 6.756 11.287 4.777 21.78a2.395 2.395 0 0 1-4.707-.887c1.658-8.788.566-14.77-2.678-16.875-4.217-2.738-12.052.414-20.888 7.774l-.985.835c-.495.426-.993.865-1.492 1.316l-1.003.92a99.468 99.468 0 0 0-3.038 2.953l-1.02 1.048c-.17.177-.34.355-.51.535l-1.023 1.094-1.024 1.124-1.024 1.153c-.341.39-.682.783-1.023 1.182l-1.022 1.21-.2.242c2.383.013 4.807.082 7.263.21l.954.052 1.895.121c1.572.11 3.127.244 4.662.398l1.832.196.909.106 1.801.227c1.493.197 2.963.415 4.408.653l1.722.296 1.697.314 1.672.333c5.528 1.14 10.61 2.583 15.088 4.274l1.326.515c11.762 4.7 19.01 11.17 18.638 18.321-.308 5.912-5.607 10.792-14.49 14.289a2.395 2.395 0 1 1-1.754-4.457c7.325-2.883 11.276-6.522 11.461-10.081.237-4.557-5.214-9.269-14.289-13.07l-1.13-.461a74.1 74.1 0 0 0-2.363-.893l-1.232-.43a85.833 85.833 0 0 0-1.266-.42l-1.298-.41-1.328-.396-.676-.194-1.374-.379c-.231-.062-.464-.123-.698-.184l-1.417-.36a116.09 116.09 0 0 0-4.415-.995l-1.523-.303-.771-.145-1.56-.28-1.582-.264a133.18 133.18 0 0 0-.8-.126l-1.616-.24c-.542-.076-1.088-.15-1.637-.222l-1.657-.205-1.676-.187c-.843-.09-1.693-.171-2.55-.246l-1.72-.141c-.577-.044-1.156-.084-1.738-.122l-1.753-.101-1.755-.081-1.74-.06a144.193 144.193 0 0 0-5.975-.045l-1.369.025-.538.714c-.334.448-.668.901-1 1.358l-.994 1.384a146.806 146.806 0 0 0-4.362 6.511l-.922 1.478a144.37 144.37 0 0 0-2.813 4.77l.25.601.651 1.538c.11.257.222.514.335.772l.689 1.549.713 1.555.74 1.561.763 1.565.788 1.57.807 1.56.82 1.537.829 1.514.419.749.845 1.48c.283.488.568.973.854 1.454l.862 1.43c.289.472.579.94.87 1.404l.877 1.378.883 1.352a127.56 127.56 0 0 0 2.23 3.258l.898 1.253c.6.826 1.203 1.632 1.806 2.418l.905 1.164.905 1.132.453.554.905 1.084.904 1.052a85.773 85.773 0 0 0 2.697 2.954l.892.915.886.88c.442.43.882.848 1.319 1.25l.87.789c.434.385.865.755 1.293 1.111l.85.693c5.782 4.6 10.905 6.459 14.307 4.724 3.194-1.629 4.718-6.384 4.605-13.127l-.029-1.026a48.477 48.477 0 0 0-.053-1.055l-.079-1.084c-.03-.365-.064-.736-.102-1.11l-.127-1.137a64.65 64.65 0 0 0-.073-.578l-.164-1.176-.188-1.199-.212-1.223c-.187-1.028-.4-2.08-.638-3.153l-.297-1.298-.322-1.318c-.056-.221-.112-.443-.17-.666l-.358-1.345-.382-1.363a110.55 110.55 0 0 0-.2-.688l-.419-1.387-.443-1.403c-.227-.705-.463-1.415-.709-2.13l-.503-1.438-.526-1.45c-.36-.97-.735-1.948-1.126-2.933l-.599-1.481-.623-1.49c-.106-.25-.212-.5-.32-.75l-.659-1.501-.682-1.51a144.64 144.64 0 0 0-.35-.756l-.719-1.518a146.6 146.6 0 0 0-.368-.76 2.395 2.395 0 1 1 4.306-2.099l.794 1.654c.26.55.517 1.1.768 1.649l.742 1.643c.73 1.64 1.42 3.271 2.068 4.888l.636 1.612c.104.268.207.535.308.802l.596 1.596c.097.266.193.53.287.794l.555 1.58c.36 1.048.703 2.088 1.027 3.118l.472 1.538c5.647 18.874 4.922 34.225-3.549 38.544-6.852 3.495-16.567-1.359-26.346-11.596l-1.011-1.079a91.356 91.356 0 0 1-2.022-2.268l-1.01-1.19c-2.687-3.217-5.35-6.814-7.93-10.727l-.964-1.483a150.123 150.123 0 0 1-6.908-11.987l-.437-.85c-.29-.568-.575-1.136-.855-1.703l-.83-1.7a153.024 153.024 0 0 1-1.877-4.063l-.386.767c-.12.24-.237.478-.355.717l-.689 1.427-.662 1.416-.636 1.405c-.104.233-.207.466-.308.698l-.596 1.386-.288.688-.555 1.366-.267.677-.514 1.342-.246.666-.473 1.317-.445 1.3c-.216.645-.42 1.283-.615 1.914l-.375 1.25-.347 1.23c-.056.203-.11.405-.163.607l-.304 1.196c-.242.987-.454 1.95-.636 2.886l-.203 1.11c-1.356 7.859-.472 13.655 2.886 15.835 3.383 2.194 9.656.525 17.396-5.063a2.395 2.395 0 1 1 2.803 3.883c-9.173 6.623-17.282 8.781-22.806 5.197-6.674-4.33-7.143-15.783-2.701-30.03l.46-1.435c.318-.962.658-1.935 1.019-2.92l.557-1.484a114.583 114.583 0 0 1 2.54-6.074l.713-1.548.742-1.559a138.317 138.317 0 0 1 3.044-5.91l-.426-1.099-.62-1.644a125.363 125.363 0 0 1-2.19-6.453l-.474-1.577c-.293-1-.567-1.99-.824-2.968l-.878.181-1.302.287-1.27.3c-.21.052-.418.103-.624.156l-1.222.321-1.188.335c-.39.113-.775.23-1.154.347l-1.118.36c-.366.123-.727.247-1.081.373l-1.044.385C9.372 41.894 5 45.48 4.797 49.385c-.185 3.56 3.367 7.59 10.353 11.217a2.395 2.395 0 1 1-2.207 4.25C4.47 60.454-.294 55.05.014 49.137c.429-8.242 10.833-14.533 26.308-17.71-3.132-14.965-1.538-26.609 5.66-30.28C37.304-1.57 44.256.643 51.81 6.712zm314.056 8.572c23.153 0 38.335 18.459 38.335 39.318v.221c0 20.861-15.4 39.538-38.554 39.538-23.155 0-38.339-18.457-38.339-39.32v-.218c0-20.861 15.402-39.539 38.558-39.539zm77.431.983c1.202 0 2.078.656 2.84 1.64l29.82 43.906 29.82-43.906c.653-.984 1.637-1.64 2.836-1.64h.547c1.528 0 2.84 1.312 2.84 2.84v71.539c0 1.53-1.312 2.842-2.84 2.842-1.53 0-2.84-1.312-2.84-2.842V26.644l-28.07 40.85c-.656.984-1.42 1.42-2.402 1.42-.984 0-1.75-.436-2.403-1.42l-28.07-40.85v64.113a2.706 2.706 0 0 1-2.73 2.731 2.704 2.704 0 0 1-2.732-2.73V19.105c0-1.527 1.31-2.84 2.84-2.84zm-142.416.326c1.419 0 2.622 1.2 2.622 2.622s-1.202 2.622-2.622 2.622h-24.467V90.65c0 1.527-1.31 2.84-2.84 2.84-1.527 0-2.839-1.313-2.839-2.84V21.837h-24.467c-1.419 0-2.62-1.199-2.62-2.622 0-1.42 1.2-2.622 2.62-2.622zm-112.277-.763c1.966 0 3.06 1.093 3.821 2.734l32.55 70.554c.327.657.436 1.203.436 1.75 0 1.418-1.2 2.62-2.732 2.62-1.31 0-2.292-.983-2.838-2.185l-8.956-19.66h-45.11l-8.958 19.77c-.546 1.31-1.418 2.075-2.73 2.075-1.42 0-2.622-1.091-2.622-2.404a4.1 4.1 0 0 1 .44-1.746l32.656-70.774c.765-1.64 1.857-2.734 3.824-2.734zm177.043 4.587c-18.897 0-32.44 15.291-32.44 34.185v.221c0 18.896 13.762 34.404 32.659 34.404 18.894 0 32.437-15.29 32.437-34.186v-.218c0-18.895-13.762-34.406-32.656-34.406zm-177.264 1.859-20.206 44.233h40.304zM64.933 51.259a6.813 6.813 0 1 1-13.318 2.876 6.813 6.813 0 0 1 13.318-2.876zM41.748 34.245l-.103.008c-.44.03-.88.064-1.315.098l-1.558.135-1.535.151-.758.083-1.499.177-.74.095-1.46.202-.579.088.205.765c.32 1.165.668 2.349 1.041 3.55l.462 1.448.24.73.5 1.47c.137.397.277.796.42 1.196a156.207 156.207 0 0 1 2.353-3.791l.517-.803a156.12 156.12 0 0 1 3.809-5.602z"/>
</svg>
